public/avatar/shoe/94.svg

<svg xmlns:xlink="http://www.w3.org/1999/xlink" height="38.3" width="36.05" xmlns="http://www.w3.org/2000/svg"><use height="17.8" transform="translate(8.95 12.85)" width="22.95" xlink:href="#a"/><defs><g id="a" fill-rule="evenodd"><path d="M-.1-.1h2.15q2.6.2 4.4 1.15 2 1.05 1.6 4.2-.35 2.7-1.6 4.1-2.2 2.5-7.95 4.9-7.8 3.2-12.25-.25-1.65-1.25-.85-5.5 1-4.95 6.15-7.6Q-5.9-2.25-2.9-1.95q1.85.1 2.8 1.85" fill="#231f20" transform="translate(14.85 2)"/><path d="M5.5 9q-1.8 2.1-7.1 4.2-7.05 2.8-11.05-.2-1.5-1.15-.8-4.7.9-4.3 5.5-6.5Q-5.6-.9-2.9-.7-1.2-.6-.4.9h2q2.3.2 3.9 1 1.85.9 1.4 3.65Q6.65 7.8 5.5 9" fill="#056" transform="translate(14.85 2)"/><path d="M-6.35 4.25v.2q-4.05 8.75-4.65 9-.45.1-1.1-.85-.65-1-.55-1.8 3.7-7.15 3.6-6.65l2.7.1" fill="#002a37" transform="translate(14.85 2)"/><path d="m.3 7.75-3.15 3.65q-1.65 1.55-4.1 2.25-2.45.65-3.9 0-2.05-.9-.3-3.1l6.9-2.9L-1.8 5.6Q.6 3.8 1.85 3.9q1.95.25 3.3 3.7-.35 1.9-1.5 1.2-.6-.35-.75-1.65-.15-1.25-.5-1.3Q2 5.7.3 7.75" fill="#002a37" transform="translate(14.85 2)"/><path d="M1.4 11.7Q3.9 9.9 5 7.45q1.8-3.85.7-5.5l.75.7q.75.9.65 2.15-.4 3.5-1.8 4.6l-3.9 2.3" fill="#002a37" transform="translate(14.85 2)"/><path d="M1.4 3q3.65-1.25 4.9.3Q7.35 4.7 5 7.9q-.4.55-.95-.8-.7-1.8-1.1-2.15Q1.3 3.3-2.85 9.7q-2.55 3.75-7.6 3.05-1.45-.2-.65-2.4.65-1.95 2.25-3.8Q-5.4 2.25-3.9 3.1q2.05 1.2 5.3-.1" fill="#dff000" transform="translate(14.85 2)"/><path d="M3.4 1.75q.75.3-3.5.85.35-.5.1-1.15l3.4.3" fill="#231f20" transform="translate(14.85 2)"/><path d="M-8.4 2.5q2.4-.2 1.3.5-2.8 1.95-4.3 5.4-.75 1.75-.9 3.1-1.25-.05-.75-3.25.8-4.4 4.65-5.75m5.2-3.2Q.25.1-.85 1.7q-.3.4-1.6-.3Q-4 .5-4.65.5q-2.9 1-2.25.25l1.25-.9q1.4-.8 2.45-.55" fill="#dff000" transform="translate(14.85 2)"/><path d="M-9.9 10.7q0-1 1.05-1.35l2.65-.4 2.55-.2q1 .2-2.65 1.35-3.6 1.15-3.6.6m2.1-3.45q-.65-.35.85-1.3 6.15-.7 5.2-.1l-3.2 1.05-2.85.35m-4.65 2.55q-.15.65-.15-2.35.35 0 .55.95l-.4 1.4m1.55-3.85q-1.2.75-.25-1.4 1.15 0 1.05.25l-.8 1.15" fill="#002a37" transform="translate(14.85 2)"/><path d="M-5.3-.45q1.65-.85 3.05-.4Q0-.15-.85 1.7-1.4.75-2.5.05L-4.95 0l-1.7.5 1.35-.95m11.8 4.3q.2.75-.7 2.75.35-2.6-1.3-2.95l-6.2.15L1 3.1q2.1-.7 3.75-.7 1.45 0 1.75 1.45m-11.55-.9q.5-.2 1.45.3Q-5.55 2.9-8.65 7q-1.4 1.95-2 3.9l-.2 1.65q-.55 0-.5-.75.25-3.2 3.05-6.2 1.9-2.1 3.25-2.65" fill="#faffde" transform="translate(14.85 2)"/></g></defs></svg>

<?xml version="1.0" encoding="UTF-8" standalone="no"?>
<svg xmlns:xlink="http://www.w3.org/1999/xlink" height="38.3px" width="36.05px" xmlns="http://www.w3.org/2000/svg">
  <g transform="matrix(1.0, 0.0, 0.0, 1.0, 23.8, 14.85)">
    <use height="17.8" transform="matrix(1.0, 0.0, 0.0, 1.0, -14.85, -2.0)" width="22.95" xlink:href="#shape0"/>
  </g>
  <defs>
    <g id="shape0" transform="matrix(1.0, 0.0, 0.0, 1.0, 14.85, 2.0)">
      <path d="M-0.1 -0.1 L2.05 -0.1 Q4.65 0.1 6.45 1.05 8.45 2.1 8.05 5.25 7.7 7.95 6.45 9.35 4.25 11.85 -1.5 14.25 -9.3 17.45 -13.75 14.0 -15.4 12.75 -14.6 8.5 -13.6 3.55 -8.45 0.9 -5.9 -2.25 -2.9 -1.95 -1.05 -1.85 -0.1 -0.1" fill="#231f20" fill-rule="evenodd" stroke="none"/>
      <path d="M5.5 9.0 Q3.7 11.1 -1.6 13.2 -8.65 16.0 -12.65 13.0 -14.15 11.85 -13.45 8.3 -12.55 4.0 -7.95 1.8 -5.6 -0.9 -2.9 -0.7 -1.2 -0.6 -0.4 0.9 L1.6 0.9 Q3.9 1.1 5.5 1.9 7.35 2.8 6.9 5.55 6.65 7.8 5.5 9.0" fill="#005566" fill-rule="evenodd" stroke="none"/>
      <path d="M-6.35 4.25 L-6.35 4.45 Q-10.4 13.2 -11.0 13.45 -11.45 13.55 -12.1 12.6 -12.75 11.6 -12.65 10.8 -8.95 3.65 -9.05 4.15 L-6.35 4.25" fill="#002a37" fill-rule="evenodd" stroke="none"/>
      <path d="M0.3 7.75 L-2.85 11.4 Q-4.5 12.95 -6.95 13.65 -9.4 14.3 -10.85 13.65 -12.9 12.75 -11.15 10.55 L-4.25 7.65 -1.8 5.6 Q0.6 3.8 1.85 3.9 3.8 4.15 5.15 7.6 4.8 9.5 3.65 8.8 3.05 8.45 2.9 7.15 2.75 5.9 2.4 5.85 2.0 5.7 0.3 7.75" fill="#002a37" fill-rule="evenodd" stroke="none"/>
      <path d="M1.4 11.7 Q3.9 9.9 5.0 7.45 6.8 3.6 5.7 1.95 L6.45 2.65 Q7.2 3.55 7.1 4.8 6.7 8.3 5.3 9.4 L1.4 11.7" fill="#002a37" fill-rule="evenodd" stroke="none"/>
      <path d="M1.4 3.0 Q5.05 1.75 6.3 3.3 7.35 4.7 5.0 7.9 4.6 8.45 4.05 7.1 3.35 5.3 2.95 4.95 1.3 3.3 -2.85 9.7 -5.4 13.45 -10.45 12.75 -11.9 12.55 -11.1 10.35 -10.45 8.4 -8.85 6.55 -5.4 2.25 -3.9 3.1 -1.85 4.3 1.4 3.0" fill="#dff000" fill-rule="evenodd" stroke="none"/>
      <path d="M3.4 1.75 Q4.15 2.05 -0.1 2.6 0.25 2.1 0.0 1.45 L3.4 1.75" fill="#231f20" fill-rule="evenodd" stroke="none"/>
      <path d="M-8.4 2.5 Q-6.0 2.3 -7.1 3.0 -9.9 4.95 -11.4 8.4 -12.15 10.15 -12.3 11.5 -13.55 11.45 -13.05 8.25 -12.25 3.85 -8.4 2.5" fill="#dff000" fill-rule="evenodd" stroke="none"/>
      <path d="M-3.2 -0.7 Q0.25 0.1 -0.85 1.7 -1.15 2.1 -2.45 1.4 -4.0 0.5 -4.65 0.5 -7.55 1.5 -6.9 0.75 L-5.65 -0.15 Q-4.25 -0.95 -3.2 -0.7" fill="#dff000" fill-rule="evenodd" stroke="none"/>
      <path d="M-9.9 10.7 Q-9.9 9.7 -8.85 9.35 L-6.2 8.95 -3.65 8.75 Q-2.65 8.95 -6.3 10.1 -9.9 11.25 -9.9 10.7" fill="#002a37" fill-rule="evenodd" stroke="none"/>
      <path d="M-7.8 7.25 Q-8.45 6.9 -6.95 5.95 -0.8 5.25 -1.75 5.85 L-4.95 6.9 -7.8 7.25" fill="#002a37" fill-rule="evenodd" stroke="none"/>
      <path d="M-12.45 9.8 Q-12.6 10.45 -12.6 7.45 -12.25 7.45 -12.05 8.4 L-12.45 9.8" fill="#002a37" fill-rule="evenodd" stroke="none"/>
      <path d="M-10.9 5.95 Q-12.1 6.7 -11.15 4.55 -10.0 4.55 -10.1 4.8 L-10.9 5.95" fill="#002a37" fill-rule="evenodd" stroke="none"/>
      <path d="M-5.3 -0.45 Q-3.65 -1.3 -2.25 -0.85 0.0 -0.15 -0.85 1.7 -1.4 0.75 -2.5 0.05 L-4.95 0.0 -6.65 0.5 -5.3 -0.45" fill="#faffde" fill-rule="evenodd" stroke="none"/>
      <path d="M6.5 3.85 Q6.7 4.6 5.8 6.6 6.15 4.0 4.5 3.65 L-1.7 3.8 1.0 3.1 Q3.1 2.4 4.75 2.4 6.2 2.4 6.5 3.85" fill="#faffde" fill-rule="evenodd" stroke="none"/>
      <path d="M-5.05 2.95 Q-4.55 2.75 -3.6 3.25 -5.55 2.9 -8.65 7.0 -10.05 8.95 -10.65 10.9 L-10.85 12.55 Q-11.4 12.55 -11.35 11.8 -11.1 8.6 -8.3 5.6 -6.4 3.5 -5.05 2.95" fill="#faffde" fill-rule="evenodd" stroke="none"/>
    </g>
  </defs>
</svg>
